!! 00000] TT[WS
!!!OTL: Da suanzao
!!!ARE: Asia, China, Shanxi Yuanping
!! Ethnic Group: Han
!! WII, 176 (2)
!!!SCT: J0667
!!!YEM: Copyright 1995, estate of Helmut Schaffrath.
**kern
*ICvox
*Ivox
*M2/4
*k[b-]
*F:
{8cc
8cc
8g
16g
16a
=1
8cc
8cc
8g
16g
16a
=2
8b-
16b-
16cc
8ff
8dd
=3
2cc
=4
8b-
16b-
16cc
8ff
8dd
=5
2cc}
=6
{8g
8cc
8a
8g
=7
8f
8f
8d
8c
=8
8f
8f
8d
8c
=9
8.f
16g
8cc
8a
=10
4.g
8a
=11
8f
16g
16a
8f
8d
=12
2c}
==
!!!AGN: Xiaodiao. Laodong, Fengsu
!!!ONB: ESAC (Essen Associative Code) Database: CHINA
!!!AMT: simple duple
!!!AIN: vox
!!!EED: Helmut Schaffrath
!!!EEV: 1.0
*-
